;FLAVOR:Marlin
;TIME:13043
;Filament used: 8.16775m
;Layer height: 0.12
;MINX:77.331
;MINY:68.746
;MINZ:0.12
;MAXX:157.716
;MAXY:161.125
;MAXZ:9.12
;Generated with Cura_SteamEngine 4.10.0
M140 S55
M105
M190 S55
M104 S210
M105
M109 S210
M82 ;absolute extrusion mode
; Ender 3 Custom Start G-code
G92 E0 ; Reset Extruder
G28 ; Home all axes
G1 Z2.0 F3000 ; Move Z Axis up little to prevent scratching of Heat Bed
G1 X0.1 Y20 Z0.3 F5000.0 ; Move to start position
G1 X0.1 Y200.0 Z0.3 F1500.0 E15 ; Draw the first line
G1 X0.4 Y200.0 Z0.3 F5000.0 ; Move to side a little
G1 X0.4 Y20 Z0.3 F1500.0 E30 ; Draw the second line
G92 E0 ; Reset Extruder
G1 Z2.0 F3000 ; Move Z Axis up little to prevent scratching of Heat Bed
G1 X5 Y20 Z0.3 F5000.0 ; Move over to prevent blob squish
G92 E0
G92 E0
G1 F2700 E-5
;LAYER_COUNT:76
;LAYER:0
M107
G0 F6000 X80.52 Y72.636 Z0.12
;TYPE:SKIRT
G1 F2700 E0
G1 F1200 X81.258 Y71.909 E0.02067
G1 X81.479 Y71.711 E0.02659
G1 X81.744 Y71.481 E0.0336
G1 X82.483 Y70.903 E0.05232
G1 X83.268 Y70.391 E0.07102
G1 X84.095 Y69.947 E0.08975
G1 X84.956 Y69.576 E0.10846
G1 X85.846 Y69.279 E0.12719
G1 X87.164 Y68.987 E0.15413
G1 X87.696 Y68.903 E0.16488
G1 X88.298 Y68.825 E0.17699
G1 X88.524 Y68.802 E0.18152
G1 X89.461 Y68.746 E0.20026
G1 X90.106 Y68.755 E0.21313
G1 X91.148 Y68.799 E0.23394
G1 X93.787 Y68.874 E0.28663
G1 X96.275 Y68.874 E0.33628
G1 X98.812 Y68.802 E0.38693
G1 X99.071 Y68.79 E0.3921
G1 X100.039 Y68.753 E0.41143
G1 X100.977 Y68.757 E0.43015
G1 X101.806 Y68.828 E0.44676
G1 X102.187 Y68.875 E0.45442
G1 X102.542 Y68.924 E0.46157
G1 X103.637 Y69.095 E0.48368
G1 X106.215 Y69.462 E0.53565
G1 X108.675 Y69.74 E0.58505
G1 X111.205 Y69.955 E0.63573
G1 X113.722 Y70.096 E0.68603
G1 X116.246 Y70.167 E0.73642
G1 X118.77 Y70.167 E0.78679
G1 X121.256 Y70.096 E0.83642
G1 X123.774 Y69.952 E0.88675
G1 X126.299 Y69.736 E0.93733
G1 X128.794 Y69.452 E0.98744
G1 X131.283 Y69.098 E1.03761
G1 X132.528 Y68.903 E1.06276
G1 X133.027 Y68.836 E1.07281
G1 X133.254 Y68.811 E1.07736
G1 X134.19 Y68.748 E1.09608
G1 X134.924 Y68.755 E1.11073
G1 X136.083 Y68.804 E1.13388
G1 X138.729 Y68.879 E1.18671
G1 X141.216 Y68.879 E1.23634
G1 X143.783 Y68.806 E1.28759
G1 X144.495 Y68.77 E1.30181
G1 X145.01 Y68.751 E1.3121
G1 X145.765 Y68.749 E1.32716
G1 X146.877 Y68.838 E1.34943
G1 X147.267 Y68.889 E1.35728
G1 X147.558 Y68.931 E1.36314
G1 X147.906 Y68.986 E1.37017
G1 X148.825 Y69.172 E1.38889
G1 X149.726 Y69.435 E1.40762
G1 X150.6 Y69.774 E1.42632
G1 X151.442 Y70.187 E1.44504
G1 X152.247 Y70.669 E1.46376
G1 X153.007 Y71.219 E1.48248
G1 X153.612 Y71.733 E1.49833
G1 X153.834 Y71.936 E1.50433
G1 X154.499 Y72.598 E1.52306
G1 X155.104 Y73.314 E1.54176
G1 X155.414 Y73.734 E1.55218
G1 X155.487 Y73.838 E1.55472
G1 X155.993 Y74.628 E1.57344
G1 X156.43 Y75.458 E1.59216
G1 X156.794 Y76.323 E1.61088
G1 X157.083 Y77.215 E1.6296
G1 X157.295 Y78.128 E1.6483
G1 X157.429 Y79.057 E1.66703
G1 X157.482 Y79.945 E1.68478
G1 X157.5 Y80.873 E1.70331
G1 X157.502 Y81.087 E1.70758
G1 X157.501 Y90.077 E1.88698
G1 X157.538 Y92.678 E1.93889
G1 X157.686 Y95.9 E2.00326
G1 X157.709 Y96.287 E2.011
G1 X157.716 Y97.489 E2.03498
G1 X157.663 Y98.546 E2.0561
G1 X157.608 Y99.388 E2.07294
G1 X157.516 Y101.936 E2.12382
G1 X157.495 Y103.858 E2.16218
G1 X157.494 Y136.312 E2.80984
G1 X157.475 Y137.629 E2.83612
G1 X157.46 Y138.06 E2.84473
G1 X157.444 Y138.358 E2.85068
G1 X157.397 Y138.944 E2.86242
G1 X157.28 Y140.032 E2.88425
G1 X157.228 Y140.44 E2.89246
G1 X157.189 Y140.708 E2.89787
G1 X157.104 Y141.211 E2.90805
G1 X156.966 Y141.925 E2.92256
G1 X156.863 Y142.401 E2.93228
G1 X156.777 Y142.76 E2.93964
G1 X156.693 Y143.089 E2.94642
G1 X156.578 Y143.511 E2.95515
G1 X156.486 Y143.828 E2.96174
G1 X156.346 Y144.287 E2.97131
G1 X156.193 Y144.753 E2.9811
G1 X156.025 Y145.227 E2.99114
G1 X155.855 Y145.681 E3.00081
G1 X155.711 Y146.041 E3.00855
G1 X155.522 Y146.49 E3.01827
G1 X155.368 Y146.842 E3.02594
G1 X155.261 Y147.075 E3.03105
G1 X155.15 Y147.309 E3.03622
G1 X155.039 Y147.535 E3.04125
G1 X154.751 Y148.108 E3.05405
G1 X154.595 Y148.408 E3.06079
G1 X154.433 Y148.707 E3.06758
G1 X154.069 Y149.329 E3.08196
G1 X153.569 Y150.123 E3.10069
G1 X153.256 Y150.592 E3.11194
G1 X152.783 Y151.264 E3.12834
G1 X152.569 Y151.558 E3.13559
G1 X152.44 Y151.729 E3.13987
G1 X152.182 Y152.058 E3.14821
G1 X151.975 Y152.311 E3.15474
G1 X151.563 Y152.797 E3.16745
G1 X151.236 Y153.166 E3.17729
G1 X150.799 Y153.637 E3.19011
G1 X150.401 Y154.044 E3.20147
G1 X149.907 Y154.524 E3.21522
G1 X149.495 Y154.905 E3.22642
G1 X149.088 Y155.262 E3.23722
G1 X148.868 Y155.449 E3.24298
G1 X148.654 Y155.627 E3.24854
G1 X148.443 Y155.798 E3.25396
G1 X148.094 Y156.074 E3.26284
G1 X147.805 Y156.295 E3.2701
G1 X147.495 Y156.521 E3.27775
G1 X147.046 Y156.837 E3.28871
G1 X146.515 Y157.188 E3.30141
G1 X145.619 Y157.744 E3.32246
G1 X145.218 Y157.981 E3.33175
G1 X144.934 Y158.141 E3.33826
G1 X144.509 Y158.368 E3.34787
G1 X144.079 Y158.586 E3.35749
G1 X143.837 Y158.705 E3.36287
G1 X143.581 Y158.827 E3.36853
G1 X143.294 Y158.959 E3.37484
G1 X142.83 Y159.164 E3.38496
G1 X142.474 Y159.315 E3.39268
G1 X142.178 Y159.433 E3.39904
G1 X141.629 Y159.643 E3.41077
G1 X141.124 Y159.822 E3.42146
G1 X140.532 Y160.016 E3.43389
G1 X140.031 Y160.167 E3.44433
G1 X139.603 Y160.285 E3.45319
G1 X139.29 Y160.367 E3.45965
G1 X139.114 Y160.41 E3.46327
G1 X138.718 Y160.499 E3.47137
G1 X137.643 Y160.72 E3.49327
G1 X136.932 Y160.842 E3.50766
G1 X136.635 Y160.883 E3.51365
G1 X136.234 Y160.931 E3.52171
G1 X135.212 Y161.034 E3.5422
G1 X134.841 Y161.065 E3.54963
G1 X134.706 Y161.074 E3.55233
G1 X134.392 Y161.09 E3.55861
G1 X134.103 Y161.101 E3.56438
G1 X133.847 Y161.108 E3.56949
G1 X132.599 Y161.125 E3.5944
G1 X102.217 Y161.123 E4.2007
G1 X101.035 Y161.105 E4.22429
G1 X100.56 Y161.089 E4.23378
G1 X100.218 Y161.07 E4.24061
G1 X99.925 Y161.049 E4.24648
G1 X99.522 Y161.013 E4.25455
G1 X98.648 Y160.918 E4.2721
G1 X98.281 Y160.871 E4.27948
G1 X97.924 Y160.82 E4.28668
G1 X97.384 Y160.729 E4.2976
G1 X96.735 Y160.603 E4.3108
G1 X96.273 Y160.503 E4.32023
G1 X95.905 Y160.415 E4.32778
G1 X95.542 Y160.322 E4.33526
G1 X95.07 Y160.192 E4.34503
G1 X94.759 Y160.102 E4.35149
G1 X94.31 Y159.964 E4.36086
G1 X93.86 Y159.814 E4.37033
G1 X93.169 Y159.567 E4.38497
G1 X93.022 Y159.512 E4.38811
G1 X92.646 Y159.364 E4.39617
G1 X92.25 Y159.199 E4.40473
G1 X91.976 Y159.08 E4.41069
G1 X91.584 Y158.904 E4.41927
G1 X91.288 Y158.766 E4.42579
G1 X90.783 Y158.521 E4.43699
G1 X90.299 Y158.271 E4.44786
G1 X89.839 Y158.019 E4.45832
G1 X89.384 Y157.756 E4.46881
G1 X88.838 Y157.422 E4.48159
G1 X88.436 Y157.163 E4.49113
G1 X88.023 Y156.885 E4.50106
G1 X87.748 Y156.694 E4.50775
G1 X87.457 Y156.485 E4.5149
G1 X87.212 Y156.304 E4.52097
G1 X86.852 Y156.03 E4.53
G1 X86.552 Y155.795 E4.53761
G1 X86.282 Y155.573 E4.54458
G1 X85.821 Y155.182 E4.55665
G1 X85.432 Y154.836 E4.56704
G1 X84.97 Y154.405 E4.57964
G1 X84.694 Y154.139 E4.58729
G1 X84.474 Y153.918 E4.59352
G1 X84.073 Y153.503 E4.60503
G1 X83.722 Y153.122 E4.61537
G1 X83.46 Y152.824 E4.62329
G1 X83.256 Y152.586 E4.62955
G1 X82.929 Y152.192 E4.63976
G1 X82.744 Y151.963 E4.64564
G1 X82.491 Y151.641 E4.65381
G1 X82.183 Y151.229 E4.66408
G1 X81.92 Y150.86 E4.67312
G1 X81.738 Y150.596 E4.67952
G1 X81.434 Y150.142 E4.69042
G1 X81.265 Y149.883 E4.69659
G1 X81.078 Y149.586 E4.7036
G1 X80.838 Y149.185 E4.71292
G1 X80.619 Y148.802 E4.72173
G1 X80.461 Y148.517 E4.72823
G1 X80.3 Y148.215 E4.73506
G1 X80.173 Y147.969 E4.74058
G1 X79.977 Y147.578 E4.74931
G1 X79.844 Y147.303 E4.75541
G1 X79.738 Y147.076 E4.76041
G1 X79.628 Y146.832 E4.76575
G1 X79.4 Y146.311 E4.7771
G1 X79.199 Y145.822 E4.78765
G1 X78.985 Y145.261 E4.79963
G1 X78.799 Y144.733 E4.8108
G1 X78.621 Y144.184 E4.82232
G1 X78.499 Y143.785 E4.83065
G1 X78.41 Y143.469 E4.8372
G1 X78.252 Y142.876 E4.84945
G1 X78.137 Y142.402 E4.85918
G1 X78.029 Y141.91 E4.86923
G1 X77.962 Y141.582 E4.87591
G1 X77.876 Y141.108 E4.88553
G1 X77.775 Y140.488 E4.89806
G1 X77.703 Y139.967 E4.90856
G1 X77.637 Y139.389 E4.92017
G1 X77.598 Y138.988 E4.92821
G1 X77.578 Y138.718 E4.93361
G1 X77.553 Y138.321 E4.94155
G1 X77.537 Y138.001 E4.94794
G1 X77.523 Y137.531 E4.95733
G1 X77.504 Y136.183 E4.98423
G1 X77.505 Y103.29 E5.64064
G1 X77.468 Y100.678 E5.69278
G1 X77.392 Y98.724 E5.7318
G1 X77.331 Y97.484 E5.75657
G1 X77.341 Y96.233 E5.78154
G1 X77.365 Y95.858 E5.78904
G1 X77.493 Y93.263 E5.84089
G1 X77.551 Y90.006 E5.9059
G1 X77.553 Y80.709 E6.09143
G1 X77.563 Y80.025 E6.10508
G1 X77.617 Y79.089 E6.12379
G1 X77.75 Y78.161 E6.1425
G1 X77.962 Y77.247 E6.16122
G1 X78.251 Y76.355 E6.17993
G1 X78.451 Y75.853 E6.19072
G1 X78.487 Y75.769 E6.19254
G1 X78.893 Y74.923 E6.21127
G1 X79.37 Y74.116 E6.22997
G1 X79.913 Y73.351 E6.2487
G1 X80.52 Y72.636 E6.26741
G0 F6000 X80.86 Y72.858
G1 F1200 X81.525 Y72.207 E6.28598
G1 X81.746 Y72.009 E6.2919
G1 X82.003 Y71.785 E6.29871
G1 X82.729 Y71.219 E6.31708
G1 X83.502 Y70.718 E6.33546
G1 X84.315 Y70.286 E6.35383
G1 X85.162 Y69.926 E6.3722
G1 X86.037 Y69.64 E6.39057
G1 X87.227 Y69.382 E6.41487
G1 X87.759 Y69.298 E6.42562
G1 X88.339 Y69.222 E6.43729
G1 X88.565 Y69.199 E6.44183
G1 X89.484 Y69.146 E6.4602
G1 X90.089 Y69.155 E6.47227
G1 X91.119 Y69.199 E6.49284
G1 X93.776 Y69.274 E6.54589
G1 X96.286 Y69.274 E6.59598
G1 X98.846 Y69.202 E6.64709
G1 X99.086 Y69.19 E6.65188
G1 X100.054 Y69.153 E6.67121
G1 X100.975 Y69.158 E6.68959
G1 X101.757 Y69.225 E6.70526
G1 X102.138 Y69.272 E6.71292
G1 X102.48 Y69.32 E6.71981
G1 X103.516 Y69.482 E6.74073
G1 X106.15 Y69.857 E6.79383
G1 X108.668 Y70.141 E6.8444
G1 X111.183 Y70.355 E6.89477
G1 X113.689 Y70.496 E6.94486
G1 X116.235 Y70.567 E6.99568
G1 X118.747 Y70.567 E7.04581
G1 X121.288 Y70.494 E7.09654
G1 X123.832 Y70.349 E7.14739
G1 X126.307 Y70.138 E7.19696
G1 X128.859 Y69.847 E7.24822
G1 X131.335 Y69.495 E7.29813
G1 X132.59 Y69.298 E7.32348
G1 X133.071 Y69.234 E7.33317
G1 X133.298 Y69.209 E7.33772
G1 X134.216 Y69.148 E7.35608
G1 X134.907 Y69.155 E7.36987
G1 X136.054 Y69.204 E7.39278
G1 X138.718 Y69.279 E7.44597
G1 X141.227 Y69.279 E7.49604
G1 X143.816 Y69.206 E7.54772
G1 X144.51 Y69.17 E7.56159
G1 X145.025 Y69.151 E7.57188
G1 X145.754 Y69.149 E7.58643
G1 X146.825 Y69.234 E7.60787
G1 X147.215 Y69.285 E7.61571
G1 X147.496 Y69.326 E7.62138
G1 X147.844 Y69.381 E7.62841
G1 X148.746 Y69.564 E7.64678
G1 X149.629 Y69.825 E7.66515
G1 X150.486 Y70.161 E7.68352
G1 X151.311 Y70.57 E7.7019
G1 X152.097 Y71.05 E7.72028
G1 X152.838 Y71.596 E7.73865
G1 X153.342 Y72.028 E7.75189
G1 X153.564 Y72.231 E7.7579
G1 X154.216 Y72.882 E7.77628
G1 X154.809 Y73.586 E7.79465
G1 X155.087 Y73.964 E7.80402
G1 X155.16 Y74.068 E7.80655
G1 X155.656 Y74.844 E7.82493
G1 X156.082 Y75.66 E7.8433
G1 X156.436 Y76.51 E7.86168
G1 X156.715 Y77.387 E7.88004
G1 X156.917 Y78.285 E7.89841
G1 X157.04 Y79.198 E7.9168
G1 X157.082 Y79.952 E7.93187
G1 X157.1 Y80.88 E7.95039
G1 X157.102 Y81.087 E7.95452
G1 X157.101 Y90.083 E8.13404
G1 X157.138 Y92.669 E8.18566
G1 X157.288 Y95.943 E8.25106
G1 X157.31 Y96.311 E8.25842
G1 X157.316 Y97.469 E8.28153
G1 X157.264 Y98.52 E8.30253
G1 X157.208 Y99.382 E8.31976
G1 X157.116 Y101.916 E8.37037
G1 X157.095 Y103.858 E8.40912
G1 X157.094 Y136.306 E9.05666
G1 X157.075 Y137.623 E9.08294
G1 X157.061 Y138.038 E9.09123
G1 X157.045 Y138.336 E9.09719
G1 X156.999 Y138.901 E9.1085
G1 X156.882 Y139.989 E9.13034
G1 X156.833 Y140.382 E9.13824
G1 X156.794 Y140.65 E9.14364
G1 X156.711 Y141.136 E9.15348
G1 X156.573 Y141.85 E9.16799
G1 X156.474 Y142.307 E9.17733
G1 X156.388 Y142.666 E9.18469
G1 X156.307 Y142.984 E9.19124
G1 X156.192 Y143.406 E9.19997
G1 X156.104 Y143.711 E9.20631
G1 X155.964 Y144.17 E9.21588
G1 X155.816 Y144.619 E9.22532
G1 X155.648 Y145.093 E9.23535
G1 X155.481 Y145.539 E9.24486
G1 X155.343 Y145.885 E9.25229
G1 X155.154 Y146.334 E9.26201
G1 X155.003 Y146.679 E9.26953
G1 X154.788 Y147.138 E9.27964
G1 X154.682 Y147.355 E9.28446
G1 X154.394 Y147.928 E9.29726
G1 X154.243 Y148.218 E9.30378
G1 X154.081 Y148.517 E9.31057
G1 X153.731 Y149.115 E9.3244
G1 X153.231 Y149.909 E9.34312
G1 X152.929 Y150.362 E9.35399
G1 X152.456 Y151.034 E9.37039
G1 X152.25 Y151.317 E9.37737
G1 X152.121 Y151.488 E9.38165
G1 X151.87 Y151.809 E9.38978
G1 X151.67 Y152.052 E9.39606
G1 X151.258 Y152.538 E9.40877
G1 X150.943 Y152.894 E9.41826
G1 X150.506 Y153.365 E9.43108
G1 X150.122 Y153.757 E9.44203
G1 X149.628 Y154.237 E9.45578
G1 X149.231 Y154.604 E9.46657
G1 X148.824 Y154.961 E9.47737
G1 X148.398 Y155.319 E9.48848
G1 X148.195 Y155.484 E9.4937
G1 X147.846 Y155.76 E9.50258
G1 X147.567 Y155.974 E9.50959
G1 X147.265 Y156.193 E9.51704
G1 X146.816 Y156.509 E9.52799
G1 X146.304 Y156.848 E9.54025
G1 X145.408 Y157.404 E9.56129
G1 X145.022 Y157.632 E9.57024
G1 X144.738 Y157.792 E9.57674
G1 X144.328 Y158.011 E9.58602
G1 X143.898 Y158.229 E9.59564
G1 X143.665 Y158.344 E9.60083
G1 X143.409 Y158.466 E9.60649
G1 X143.133 Y158.593 E9.61255
G1 X142.669 Y158.798 E9.62267
G1 X142.32 Y158.946 E9.63024
G1 X142.035 Y159.059 E9.63635
G1 X141.486 Y159.269 E9.64808
G1 X141 Y159.442 E9.65838
G1 X140.408 Y159.636 E9.67081
G1 X139.924 Y159.782 E9.6809
G1 X139.496 Y159.9 E9.68976
G1 X139.195 Y159.978 E9.69597
G1 X139.019 Y160.021 E9.69958
G1 X138.638 Y160.107 E9.70738
G1 X137.563 Y160.328 E9.72928
G1 X136.878 Y160.445 E9.74314
G1 X136.581 Y160.486 E9.74913
G1 X136.194 Y160.533 E9.75691
G1 X135.172 Y160.636 E9.77741
G1 X134.814 Y160.666 E9.78458
G1 X134.679 Y160.675 E9.78728
G1 X134.377 Y160.69 E9.79331
G1 X133.841 Y160.708 E9.80401
G1 X132.599 Y160.725 E9.8288
G1 X102.223 Y160.723 E10.43499
G1 X101.041 Y160.705 E10.45858
G1 X100.576 Y160.689 E10.46786
G1 X100.246 Y160.671 E10.47446
G1 X99.953 Y160.65 E10.48032
G1 X99.566 Y160.615 E10.48807
G1 X98.692 Y160.52 E10.50562
G1 X98.338 Y160.475 E10.51274
G1 X97.981 Y160.424 E10.51994
G1 X97.46 Y160.337 E10.53048
G1 X96.811 Y160.211 E10.54367
G1 X96.366 Y160.114 E10.55276
G1 X95.998 Y160.026 E10.56031
G1 X95.648 Y159.936 E10.56752
G1 X95.176 Y159.806 E10.57729
G1 X94.877 Y159.719 E10.58351
G1 X94.428 Y159.581 E10.59288
G1 X93.994 Y159.438 E10.602
G1 X93.309 Y159.193 E10.61652
G1 X93.162 Y159.138 E10.61965
G1 X92.8 Y158.995 E10.62742
G1 X92.404 Y158.83 E10.63598
G1 X92.139 Y158.715 E10.64174
G1 X91.747 Y158.539 E10.65032
G1 X91.462 Y158.406 E10.65659
G1 X90.957 Y158.161 E10.6678
G1 X90.491 Y157.92 E10.67827
G1 X90.031 Y157.668 E10.68873
G1 X89.593 Y157.414 E10.69884
G1 X89.047 Y157.08 E10.71161
G1 X88.659 Y156.831 E10.72081
G1 X88.246 Y156.553 E10.73074
G1 X87.982 Y156.37 E10.73716
G1 X87.691 Y156.161 E10.7443
G1 X87.454 Y155.986 E10.75018
G1 X87.094 Y155.712 E10.75921
G1 X86.801 Y155.482 E10.76665
G1 X86.541 Y155.268 E10.77337
G1 X86.08 Y154.877 E10.78543
G1 X85.705 Y154.544 E10.79544
G1 X85.243 Y154.113 E10.80805
G1 X84.973 Y153.853 E10.81553
G1 X84.761 Y153.64 E10.82152
G1 X84.36 Y153.225 E10.83304
G1 X84.022 Y152.858 E10.843
G1 X83.76 Y152.56 E10.85092
G1 X83.564 Y152.331 E10.85693
G1 X83.237 Y151.937 E10.86715
G1 X83.059 Y151.716 E10.87281
G1 X82.806 Y151.394 E10.88098
G1 X82.509 Y150.997 E10.89088
G1 X82.246 Y150.628 E10.89992
G1 X82.07 Y150.374 E10.90609
G1 X81.766 Y149.92 E10.91699
G1 X81.604 Y149.67 E10.92294
G1 X81.417 Y149.373 E10.92994
G1 X81.185 Y148.987 E10.93893
G1 X80.966 Y148.604 E10.94773
G1 X80.814 Y148.329 E10.954
G1 X80.653 Y148.027 E10.96083
G1 X80.531 Y147.79 E10.96615
G1 X80.335 Y147.399 E10.97488
G1 X80.207 Y147.134 E10.98075
G1 X79.994 Y146.672 E10.9909
G1 X79.766 Y146.151 E11.00225
G1 X79.573 Y145.679 E11.01243
G1 X79.359 Y145.118 E11.02441
G1 X79.18 Y144.609 E11.03518
G1 X79.002 Y144.06 E11.0467
G1 X78.882 Y143.671 E11.05482
G1 X78.796 Y143.366 E11.06114
G1 X78.638 Y142.773 E11.07339
G1 X78.528 Y142.317 E11.08275
G1 X78.42 Y141.825 E11.0928
G1 X78.355 Y141.508 E11.09926
G1 X78.315 Y141.295 E11.10359
G1 X78.271 Y141.043 E11.10869
G1 X78.17 Y140.423 E11.12123
G1 X78.1 Y139.922 E11.13132
G1 X78.034 Y139.344 E11.14293
G1 X77.997 Y138.953 E11.15077
G1 X77.977 Y138.693 E11.15597
G1 X77.952 Y138.296 E11.16391
G1 X77.937 Y137.987 E11.17009
G1 X77.923 Y137.525 E11.17931
G1 X77.904 Y136.183 E11.20609
G1 X77.905 Y103.284 E11.86263
G1 X77.868 Y100.658 E11.91504
G1 X77.79 Y98.66 E11.95494
